src/public/projets/libeo/bmr/logo.svg

<svg height="34" width="140" xmlns="http://www.w3.org/2000/svg"><path d="m133.876 20.565a6.483 6.483 0 0 1 -2.635.639h-3.461v12.788h-5.191v-33.972h8.178c2.89 0 5.016.787 6.376 2.36 1.191 1.373 1.786 3.289 1.786 5.747v4.943a7.896 7.896 0 0 1 -2.773 6.1 11.033 11.033 0 0 1 -2.28 1.395zm0-12.348c.002-1.971-.986-2.956-2.964-2.956h-3.132v10.871h3.132c.792.014 1.553-.3 2.099-.866.565-.55.877-1.304.865-2.088zm-29.629 20.608h5.189v.023h9.585v5.152h-14.774zm5.189-14.403h7.004v5.153h-7.004v6.427h-5.189v-26.002h14.774v5.153h-9.585zm-15.021-6.094h5.19v25.672h-5.19zm0-8.3h5.19v5.477h-5.19v-5.477zm-17.712 0h5.191v28.875h8.952v5.097h-14.143v-33.972zm-18.341 7.958h5.187v6.436h7.004v5.153h-7.004v9.273h9.586v5.152h-14.773zm5.187-2.823h-5.187v-5.163h14.773v5.153h-9.586zm-15.459 28.837h-5.191v-28.82h-3.94l-.934-5.152h16.74v5.152h-6.675zm-12.518 0-1.215-7.807h-10.74l4.504-26.165h7.142l5.767 33.972zm-3.911-26.191-1.923 13.395h3.844zm-3.981 26.191h-5.405l.857-4.981h5.351zm-14.815-23.355v-1.75a2.695 2.695 0 0 0 1.863-1.02c.413-.559.619-1.425.619-2.597h-2.482v-4.973h4.678v4.533c0 1.758-.34 3.094-1.02 4.009s-1.899 1.514-3.658 1.798zm1.276 23.355h-14.141v-33.972h5.191v28.875h8.95zm124.959 0h-4.714l-2.446-10.416 5.208-1.365z" fill="#fff" fill-rule="evenodd"/></svg>

<?xml version="1.0" encoding="UTF-8"?>
<svg width="140px" height="34px" viewBox="0 0 140 34" version="1.1" xmlns="http://www.w3.org/2000/svg" xmlns:xlink="http://www.w3.org/1999/xlink">
    <title>Group</title>
    <g id="Page-1" stroke="none" stroke-width="1" fill="none" fill-rule="evenodd">
        <g id="aterlier-brm" transform="translate(-40.000000, -301.000000)" fill="#FFFFFF">
            <g id="Group" transform="translate(40.000000, 301.000000)">
                <path d="M133.876,20.565 C133.054,20.961 132.155,21.179 131.241,21.204 L127.78,21.204 L127.78,33.992 L122.589,33.992 L122.589,0.02 L130.767,0.02 C133.657,0.02 135.783,0.807 137.143,2.38 C138.334,3.753 138.929,5.669 138.929,8.127 L138.929,13.07 C138.959,15.407 137.945,17.639 136.156,19.17 C135.457,19.725 134.691,20.193 133.876,20.565 Z M133.876,8.217 C133.878,6.246 132.89,5.261 130.912,5.261 L127.78,5.261 L127.78,16.132 L130.912,16.132 C131.704,16.146 132.465,15.832 133.011,15.266 C133.576,14.716 133.888,13.962 133.876,13.178 L133.876,8.217 Z M104.247,28.825 L109.436,28.825 L109.436,28.848 L119.021,28.848 L119.021,34 L104.247,34 L104.247,28.825 Z M109.436,14.422 L116.44,14.422 L116.44,19.575 L109.436,19.575 L109.436,26.002 L104.247,26.002 L104.247,0 L119.021,0 L119.021,5.153 L109.436,5.153 L109.436,14.422 Z M94.415,8.328 L99.605,8.328 L99.605,34 L94.415,34 L94.415,8.328 Z M94.415,0.028 L99.605,0.028 L99.605,5.505 L94.415,5.505 L94.415,0.028 Z M76.703,0.028 L81.894,0.028 L81.894,28.903 L90.846,28.903 L90.846,34 L76.703,34 L76.703,0.028 Z M58.362,7.986 L63.549,7.986 L63.549,14.422 L70.553,14.422 L70.553,19.575 L63.549,19.575 L63.549,28.848 L73.135,28.848 L73.135,34 L58.362,34 L58.362,7.986 Z M63.549,5.163 L58.362,5.163 L58.362,0 L73.135,0 L73.135,5.153 L63.549,5.153 L63.549,5.163 Z M48.09,34 L42.899,34 L42.899,5.18 L38.959,5.18 L38.025,0.028 L54.765,0.028 L54.765,5.18 L48.09,5.18 L48.09,34 Z M35.572,34 L34.357,26.193 L23.617,26.193 L28.121,0.028 L35.263,0.028 L41.03,34 L35.572,34 Z M31.661,7.809 L29.738,21.204 L33.582,21.204 L31.661,7.809 Z M27.68,34 L22.275,34 L23.132,29.019 L28.483,29.019 L27.68,34 Z M12.865,10.645 L12.865,8.895 C13.602,8.823 14.276,8.454 14.728,7.875 C15.141,7.316 15.347,6.45 15.347,5.278 L12.865,5.278 L12.865,0.305 L17.543,0.305 L17.543,4.838 C17.543,6.596 17.203,7.932 16.523,8.847 C15.843,9.762 14.624,10.361 12.865,10.645 Z M14.141,34 L0,34 L0,0.028 L5.191,0.028 L5.191,28.903 L14.141,28.903 L14.141,34 Z M139.1,34 L134.386,34 L131.94,23.584 L137.148,22.219 L139.1,34 Z" id="Shape"></path>
            </g>
        </g>
    </g>
</svg>
